X:1
T:Title
%%score { ( 1 3 ) | ( 2 4 ) }
L:1/8
M:6/8
K:G
V:1 treble nm="Grand Piano"
V:3 treble 
V:2 bass 
V:4 bass 
V:1
 z3 z2[Q:1/4=87] [B,D] | [DB][^C_B][D=B] [B,G][B,D][B,^D] | [CE][EG][Ec] [DB]2 c | d>ed B<AG | %4
 [FA]3- [FA]2 D | B_B=B G[B,D][B,^D] |[M:5/8] [CE][EG][Ec] [DB]2 |[M:1/8] [Gd] | %8
[M:3/4] [Fd][DA] [DA][^CB] [CA][CE] |[M:5/8] [CA]-[CA]- [CA]3 |[M:1/8] [Fd] | %11
[M:3/4] d>^c dB/G/- GA |[M:5/8] B-B- B3 |[M:1/8] d |[M:3/4] d>^c de dB | A6 | de dB GD | %17
[M:7/8] E[EG][Ec] [Ge]3 [Ec] |[M:3/4] [DB]>[Gd] [Gd][Fd]/[Fc]/- [Fc][CDA] | %19
[M:5/8] [G,G]-[G,-DG-][G,-EG-] [G,DG]2 |] %20
V:2
 z3 z2 [G,,G,] | [G,,G,][G,,G,][G,,G,] [G,,D,][G,,G,][G,,G,] | %2
 [C,G,][C,C][C,G,] [G,,G,]2[K:treble] [G,A,G] | %3
 [G,B,G]>[G,CG][G,B,G] [G,DG]<[K:bass][G,CD][G,B,D] | [D,D]3- [D,D]2 [D,F,] | %5
 [G,D][G,^C][G,D] [G,B,][G,,G,][G,,G,] |[M:5/8] [C,G,][C,C][C,G,] [G,,G,]2 |[M:1/8] [G,,B,] | %8
[M:3/4] [A,,A,][A,,F,] [A,,F,][A,,G,] [A,,G,][A,,G,] |[M:5/8] [D,F,]-[D,F,]- [D,F,]3 | %10
[M:1/8] [D,C] |[M:3/4][K:treble] [G,B,G]>[G,_B,G] [G,=B,G][G,DG]/[G,B,]/- [G,B,][G,CG] | %12
[M:5/8] [DG]-[DG]- [DG]3 |[M:1/8] [G,B,G] |[M:3/4] [G,B,G]>[G,_B,G] [G,=B,G][G,CG] [G,B,G][G,DG] | %15
 D,2 A,, D,2 [D,C] | [G,B,G][G,CG] [G,B,G][G,DG] [G,B,D][K:bass][B,,G,] | %17
[M:7/8] [C,G,C][C,C][C,C] [C,C]3 [C,G,] |[M:3/4] [D,G,]>[D,B,] [D,B,][D,A,]/[D,A,]/- [D,A,]D, | %19
[M:5/8] z B,C B,2 |] %20
V:3
 x6 | x6 | x6 | x6 | x6 | x6 |[M:5/8] x5 |[M:1/8] x |[M:3/4] x6 |[M:5/8] x5 |[M:1/8] x | %11
[M:3/4] x6 |[M:5/8] z2 D, G,2 |[M:1/8] x |[M:3/4] x6 | [DF]2 [^CG] [DF]2 [Fd] | x6 |[M:7/8] x7 | %18
[M:3/4] x6 |[M:5/8] [B,D] z z z2 |] %20
V:4
 x6 | x6 | x5[K:treble] x | x7/2[K:bass] x5/2 | x6 | x6 |[M:5/8] x5 |[M:1/8] x |[M:3/4] x6 | %9
[M:5/8] x5 |[M:1/8] x |[M:3/4][K:treble] x6 |[M:5/8] G,2 z z2 |[M:1/8] x |[M:3/4] x6 | x6 | %16
 x5[K:bass] x |[M:7/8] x7 |[M:3/4] x6 |[M:5/8] G,,-G,,- G,,3 |] %20

